usr/share/icons/biglinux-icons-material/scalable/apps/cherrytree.svg

<?xml version="1.0" encoding="UTF-8" standalone="no"?>
<svg
   width="24"
   height="24"
   viewBox="0 0 6.349875 6.349875"
   version="1.1"
   id="svg3"
   sodipodi:docname="cherrytree.svg"
   inkscape:version="1.3 (0e150ed6c4, 2023-07-21)"
   xmlns:inkscape="http://www.inkscape.org/namespaces/inkscape"
   xmlns:sodipodi="http://sodipodi.sourceforge.net/DTD/sodipodi-0.dtd"
   xmlns="http://www.w3.org/2000/svg"
   xmlns:svg="http://www.w3.org/2000/svg">
  <defs
     id="defs3" />
  <sodipodi:namedview
     id="namedview3"
     pagecolor="#ffffff"
     bordercolor="#000000"
     borderopacity="0.25"
     inkscape:showpageshadow="2"
     inkscape:pageopacity="0.0"
     inkscape:pagecheckerboard="0"
     inkscape:deskcolor="#d1d1d1"
     inkscape:zoom="9.6875"
     inkscape:cx="31.948387"
     inkscape:cy="31.948387"
     inkscape:window-width="2560"
     inkscape:window-height="998"
     inkscape:window-x="0"
     inkscape:window-y="0"
     inkscape:window-maximized="1"
     inkscape:current-layer="svg3" />
  <path
     d="m 2.5380665,0.29490713 c 0.031749,0 0.062088,-0.004233 0.091015,-0.012347 0.3802866,-0.0250468 0.7605735,-0.0236357 1.1398022,0.002822 C 4.1131882,0.31289845 4.4465566,0.38733309 4.769342,0.50974457 5.3052008,0.73022634 5.6717297,1.1133355 5.8703397,1.6576609 5.9818153,1.9857377 6.0491945,2.3233394 6.070008,2.6690548 6.0975242,3.1047268 6.0879993,3.5386349 6.0396697,3.9728959 6.0026288,4.2773371 5.9239609,4.5694313 5.8026078,4.8505897 5.5778927,5.3384717 5.2127749,5.6746623 4.7086654,5.8591614 4.3005095,5.9970948 3.8803595,6.0701184 3.4475097,6.0771739 2.9624497,6.1032788 2.4816231,6.0658852 2.0050298,5.9681676 1.1298053,5.7737909 0.58830208,5.2393431 0.38440054,4.3655297 0.29761892,3.9728959 0.25740304,3.5746176 0.26586954,3.172106 0.25634473,2.7449005 0.30149939,2.3219283 0.40239185,1.9056587 0.61722929,1.0900526 1.1354497,0.58417922 1.9567001,0.38874417 2.1482547,0.34182566 2.3426314,0.31007628 2.5380665,0.29490713 Z"
     style="fill:#f2f2f2;fill-opacity:1;fill-rule:evenodd;stroke:none;stroke-width:0.352771"
     id="path4714" />
  <g
     stroke-width="1.90853"
     id="g6"
     transform="matrix(0.41183589,0,0,0.41183589,-0.32112764,-0.31210171)">
    <path
       d="m 76.025,10.148 c -4.097,-0.021 -7.346,6.984 -5.662,11.203 4.653,-4.534 9.09,-3.73 8.184,-9.443 0.491,0.591 1.173,1.605 1.318,2.982 0.227,2.155 -0.843,5.189 -6.754,8.637 l 0.504,0.865 c 6.091,-3.553 7.519,-7.02 7.246,-9.613 -0.191,-1.808 -0.939,-2.289 -1.516,-2.928 1.555,0.236 2.959,0.589 3.619,1.447 0.839,1.091 1.142,2.597 1.143,4.158 0,3.122 -1.211,6.326 -1.211,6.326 l 0.934,0.359 c 0,0 1.282,-3.307 1.281,-6.686 0,-1.689 -0.322,-3.421 -1.357,-4.768 -1.851,-1.9 -3.914,-2.137 -6.27,-2.229 a 3.8,3.8 0 0 0 -1.459,-0.313 z"
       color="#000000"
       fill="#50b721"
       style="white-space:normal;isolation:auto;mix-blend-mode:normal;stroke-width:1.90853"
       transform="matrix(0.33674,0,0,0.33674,-17.921,0.875)"
       id="path4" />
    <path
       d="m 6.783,8.601 a 2.021,2.021 0 0 0 0,4.041 c 0.578,0 1.095,-0.243 1.463,-0.631 -0.287,-0.39 -0.453,-0.868 -0.453,-1.39 0,-0.522 0.166,-0.998 0.453,-1.388 A 2.009,2.009 0 0 0 6.783,8.6"
       fill="#e94040"
       id="path5"
       style="stroke-width:1.90853" />
    <path
       d="m 12.171,10.622 a 2.0210001,2.0210001 0 1 1 -4.042,-10e-4 2.021,2.021 0 0 1 4.042,0"
       fill="#e94040"
       id="path6"
       style="stroke-width:1.90853" />
  </g>
</svg>

<svg xmlns="http://www.w3.org/2000/svg" width="24" height="24" viewBox="0 0 6.35 6.35"><path d="M2.538.295A.335.335 0 0 0 2.63.283c.38-.025.76-.024 1.14.002a3.62 3.62 0 0 1 1 .225c.536.22.903.603 1.101 1.148.112.328.18.665.2 1.011.028.436.018.87-.03 1.304a3.166 3.166 0 0 1-.237.878c-.225.487-.59.824-1.094 1.008a4.125 4.125 0 0 1-1.261.218 5.644 5.644 0 0 1-1.443-.109C1.13 5.774.588 5.24.385 4.366a5.025 5.025 0 0 1-.12-1.194c-.009-.427.036-.85.137-1.266C.617 1.09 1.135.584 1.957.389c.191-.047.386-.079.581-.094Z" style="fill:#f2f2f2;fill-opacity:1;fill-rule:evenodd;stroke:none;stroke-width:.352771"/><g stroke-width="1.909"><path fill="#50b721" d="M76.025 10.148c-4.097-.021-7.346 6.984-5.662 11.203 4.653-4.534 9.09-3.73 8.184-9.443.491.591 1.173 1.605 1.318 2.982.227 2.155-.843 5.189-6.754 8.637l.504.865c6.091-3.553 7.519-7.02 7.246-9.613-.191-1.808-.939-2.289-1.516-2.928 1.555.236 2.959.589 3.619 1.447.839 1.091 1.142 2.597 1.143 4.158 0 3.122-1.211 6.326-1.211 6.326l.934.359s1.282-3.307 1.281-6.686c0-1.689-.322-3.421-1.357-4.768-1.851-1.9-3.914-2.137-6.27-2.229a3.8 3.8 0 0 0-1.459-.313z" color="#000" style="white-space:normal;isolation:auto;mix-blend-mode:normal;stroke-width:1.90853" transform="translate(-7.702 .048) scale(.13868)"/><path fill="#e94040" d="M6.783 8.601a2.021 2.021 0 0 0 0 4.041c.578 0 1.095-.243 1.463-.631a2.329 2.329 0 0 1-.453-1.39c0-.522.166-.998.453-1.388A2.009 2.009 0 0 0 6.783 8.6" style="stroke-width:1.90853" transform="matrix(.41184 0 0 .41184 -.321 -.312)"/><path fill="#e94040" d="M12.171 10.622a2.021 2.021 0 1 1-4.042-.001 2.021 2.021 0 0 1 4.042 0" style="stroke-width:1.90853" transform="matrix(.41184 0 0 .41184 -.321 -.312)"/></g></svg>
